svgs/i2p.svg

<svg width="192" height="192" viewBox="0 0 192 192" fill="none" xmlns="http://www.w3.org/2000/svg">
<path d="M68.0522 132.227C54.9684 125.268 45.0105 113.607 40.1874 99.5943C35.3642 85.5821 36.0348 70.262 42.0636 56.7247C48.0925 43.1874 59.0311 32.4403 72.6728 26.6514C86.3145 20.8625 101.644 20.4626 115.569 25.5325C129.494 30.6023 140.978 40.7646 147.704 53.9692C154.431 67.1738 155.899 82.438 151.813 96.6827C147.727 110.927 138.39 123.092 125.687 130.723C112.984 138.355 97.8593 140.884 83.3643 137.802" stroke="black" stroke-width="12" stroke-linecap="round" stroke-linejoin="round"/>
<path d="M72.1655 88.8271C81.578 88.8271 89.2083 81.1968 89.2083 71.7843C89.2083 62.3718 81.578 54.7415 72.1655 54.7415C62.753 54.7415 55.1227 62.3718 55.1227 71.7843C55.1227 81.1968 62.753 88.8271 72.1655 88.8271Z" stroke="black" stroke-width="8" stroke-linecap="round" stroke-linejoin="round"/>
<path d="M117.573 86.1108C126.985 86.1108 134.616 78.4805 134.616 69.068C134.616 59.6555 126.985 52.0252 117.573 52.0252C108.16 52.0252 100.53 59.6555 100.53 69.068C100.53 78.4805 108.16 86.1108 117.573 86.1108Z" stroke="black" stroke-width="8" stroke-linecap="round" stroke-linejoin="round"/>
<path d="M107.612 82.8154C106.73 81.5071 106.294 79.9485 106.369 78.3723C106.445 76.796 107.028 75.2864 108.032 74.0687C109.036 72.851 110.406 71.9904 111.939 71.6153C113.472 71.2401 115.085 71.3706 116.538 71.9872C117.991 72.6038 119.205 73.6735 120 75.0367C120.795 76.3999 121.128 77.9836 120.949 79.5515C120.771 81.1195 120.09 82.5877 119.009 83.7371C117.928 84.8866 116.504 85.6557 114.95 85.9298" stroke="black" stroke-width="8" stroke-linecap="round" stroke-linejoin="round"/>
<path d="M73.3903 88.6495C71.8501 88.2368 70.4869 87.3324 69.5079 86.0738C68.529 84.8152 67.9879 83.2714 67.967 81.677C67.9461 80.0827 68.4465 78.5251 69.3922 77.2413C70.3378 75.9575 71.6768 75.0177 73.2056 74.5648C74.7344 74.1119 76.3693 74.1707 77.8616 74.7323C79.3539 75.2939 80.622 76.3276 81.4728 77.6761C82.3237 79.0246 82.7109 80.6141 82.5754 82.2028C82.4399 83.7915 81.7893 85.2925 80.7224 86.4775" stroke="black" stroke-width="8" stroke-linecap="round" stroke-linejoin="round"/>
<path d="M68.0522 132.227L57.3213 164.427L72.6338 170L83.3643 137.802" stroke="black" stroke-width="12" stroke-linecap="round" stroke-linejoin="round"/>
</svg>

<svg width="192" height="192" viewBox="0 0 192 192" fill="none" xmlns="http://www.w3.org/2000/svg"><path d="M68.052 132.227a58.541 58.541 0 1 1 15.312 5.575" stroke="#000" stroke-width="12" stroke-linecap="round" stroke-linejoin="round"/><path d="M72.165 88.827c9.413 0 17.043-7.63 17.043-17.043 0-9.412-7.63-17.043-17.043-17.043-9.412 0-17.042 7.63-17.042 17.043s7.63 17.043 17.042 17.043ZM117.573 86.11c9.412 0 17.043-7.63 17.043-17.042 0-9.412-7.631-17.043-17.043-17.043-9.413 0-17.043 7.63-17.043 17.043s7.63 17.043 17.043 17.043Z" stroke="#000" stroke-width="8" stroke-linecap="round" stroke-linejoin="round"/><path d="M107.612 82.815a7.319 7.319 0 1 1 7.338 3.114M73.39 88.65a7.318 7.318 0 1 1 7.332-2.172" stroke="#000" stroke-width="8" stroke-linecap="round" stroke-linejoin="round"/><path d="m68.052 132.227-10.73 32.2L72.633 170l10.73-32.198" stroke="#000" stroke-width="12" stroke-linecap="round" stroke-linejoin="round"/></svg>
